X:1
T:Title
%%score { ( 1 3 ) | ( 2 4 ) }
L:1/8
Q:1/4=100
M:4/4
K:Eb
V:1 treble nm="Grand Piano"
V:3 treble 
V:2 bass 
V:4 bass 
V:1
 B2 c2 [DG]2 [DF]2 | E>D E>G B4 | [Ec]2 [Ee]2 [EB]2 [B,EG]2 | %3
w: Charles~Gabriel * * *|||
 [=A,EG]>[A,EF] [A,E]>[A,EG] D2- [DB]2 | B2 c2 [DG]2 [DF]2 | E>F [EG][EB] e2- [Fe]2 | %6
w: |||
 [Ge][EG][EB][Ec] [EG]2 [DF]2 | E6 z2 | [GB][GB][Gc][Gd] [Ge]2 [Ge]2 | A8 | %10
w: ||||
 AA[DB][Dc] [Ad]2 [Ad]2 | G6 z2 | [A,CF][A,C=E][A,CF][CFA] [C_Gd]2 [_EGc]2 | z4 e4 | %14
w: ||||
 [Ge][EG][EB][Ec] [EG]2 [DF]2 | E6 z2 |] %16
w: ||
V:2
 [E,G,E]2 [E,A,E]2 [B,,B,]2 [B,,A,]2 | [E,G,B,]>[E,F,B,] [E,G,B,]>[E,B,E] [E,G,E]4 | %2
 [A,,A,]2 [C,A,]2 [E,G,]2 E,2 | C,>C, F,>F, z2 A,2 | [E,G,E]2 [E,A,E]2 [B,,B,]2 [B,,A,]2 | %5
 [E,G,]>[E,A,E] [_D,B,][D,G,] [C,A,]2 [C,=A,]2 | [B,,B,][B,,B,][B,,G,][B,,A,] [B,,B,]2 [B,,A,]2 | %7
 [E,G,]6 z2 | [E,E][E,E][E,E][E,E] [E,B,]2 [E,B,]2 | [F,B,D]2 [B,,B,]2 [F,B,]2 [B,,B,]2 | %10
 [F,B,D][F,B,D][B,,B,][B,,B,] [F,B,]2 [B,,B,]2 | [E,B,E]2 [G,B,]B, E,2 E,2 | %12
 A,,A,,A,,A,, =A,,2 A,,2 | B,,B,,_D,[D,G,] [C,A,]2 [=B,,=A,]2 | %14
 [B,,B,][B,,B,][B,,G,][B,,A,] [B,,B,]2 [B,,A,]2 | [E,G,]6 z2 |] %16
V:3
 x8 | x8 | x8 | z4 [B,F]2 z2 | x8 | z4 E2 z2 | x8 | x8 | x8 | z2 D2 D2 D2 | x8 | %11
 z2 E2 [B,E]2 [B,EG]2 | x8 | [EGc][EGB][B,EG][EB] E2 _G2 | x8 | x8 |] %16
V:4
 x8 | x8 | x8 | z4 B,,4 | x8 | x8 | x8 | x8 | x8 | x8 | x8 | x8 | x8 | x8 | x8 | x8 |] %16

